X: 140051
Q: "Irish Jig."
M: 6/8
L: 1/8
K: G
vdc |\
|: de |\
=fgf edc | Bcd ud2ue | =fgf e^fg | ABA Ade |\
=fgf edc | Bcd ud2ud | BdB cAF | GAG G :|


